images/IG.svg

<svg width="20" height="20" viewBox="0 0 20 20" fill="none" xmlns="http://www.w3.org/2000/svg">
<path d="M10 0C7.28625 0 6.945 0.0125 5.87875 0.06C4.8125 0.11 4.08625 0.2775 3.45 0.525C2.78231 0.775407 2.17768 1.16925 1.67875 1.67875C1.16925 2.17768 0.775407 2.78231 0.525 3.45C0.2775 4.085 0.10875 4.8125 0.06 5.875C0.0125 6.94375 0 7.28375 0 10.0013C0 12.7163 0.0125 13.0563 0.06 14.1225C0.11 15.1875 0.2775 15.9137 0.525 16.55C0.78125 17.2075 1.1225 17.765 1.67875 18.3212C2.23375 18.8775 2.79125 19.22 3.44875 19.475C4.08625 19.7225 4.81125 19.8912 5.87625 19.94C6.94375 19.9875 7.28375 20 10 20C12.7163 20 13.055 19.9875 14.1225 19.94C15.1863 19.89 15.915 19.7225 16.5513 19.475C17.2185 19.2244 17.8227 18.8306 18.3212 18.3212C18.8775 17.765 19.2188 17.2075 19.475 16.55C19.7213 15.9137 19.89 15.1875 19.94 14.1225C19.9875 13.0563 20 12.7163 20 10C20 7.28375 19.9875 6.94375 19.94 5.87625C19.89 4.8125 19.7213 4.085 19.475 3.45C19.2246 2.78231 18.8308 2.17768 18.3212 1.67875C17.8223 1.16925 17.2177 0.775407 16.55 0.525C15.9125 0.2775 15.185 0.10875 14.1213 0.06C13.0538 0.0125 12.715 0 9.9975 0H10ZM9.10375 1.8025H10.0013C12.6713 1.8025 12.9875 1.81125 14.0413 1.86C15.0163 1.90375 15.5463 2.0675 15.8988 2.20375C16.365 2.385 16.6987 2.6025 17.0487 2.9525C17.3987 3.3025 17.615 3.635 17.7963 4.1025C17.9338 4.45375 18.0962 4.98375 18.14 5.95875C18.1887 7.0125 18.1987 7.32875 18.1987 9.9975C18.1987 12.6663 18.1887 12.9837 18.14 14.0375C18.0962 15.0125 17.9325 15.5413 17.7963 15.8938C17.6348 16.3274 17.3791 16.7197 17.0475 17.0425C16.6975 17.3925 16.365 17.6088 15.8975 17.79C15.5475 17.9275 15.0175 18.09 14.0413 18.135C12.9875 18.1825 12.6713 18.1938 10.0013 18.1938C7.33125 18.1938 7.01375 18.1825 5.96 18.135C4.985 18.09 4.45625 17.9275 4.10375 17.79C3.66979 17.6291 3.277 17.3738 2.95375 17.0425C2.62159 16.7195 2.36541 16.3267 2.20375 15.8925C2.0675 15.5412 1.90375 15.0113 1.86 14.0363C1.8125 12.9825 1.8025 12.6662 1.8025 9.995C1.8025 7.32375 1.8125 7.01 1.86 5.95625C1.905 4.98125 2.0675 4.45125 2.205 4.09875C2.38625 3.6325 2.60375 3.29875 2.95375 2.94875C3.30375 2.59875 3.63625 2.3825 4.10375 2.20125C4.45625 2.06375 4.985 1.90125 5.96 1.85625C6.8825 1.81375 7.24 1.80125 9.10375 1.8V1.8025ZM15.3387 3.4625C15.1812 3.4625 15.0251 3.49354 14.8795 3.55384C14.7339 3.61415 14.6017 3.70254 14.4902 3.81397C14.3788 3.9254 14.2904 4.05769 14.2301 4.20328C14.1698 4.34887 14.1388 4.50491 14.1388 4.6625C14.1388 4.82009 14.1698 4.97613 14.2301 5.12172C14.2904 5.26731 14.3788 5.3996 14.4902 5.51103C14.6017 5.62246 14.7339 5.71085 14.8795 5.77116C15.0251 5.83146 15.1812 5.8625 15.3387 5.8625C15.657 5.8625 15.9622 5.73607 16.1873 5.51103C16.4123 5.28598 16.5387 4.98076 16.5387 4.6625C16.5387 4.34424 16.4123 4.03902 16.1873 3.81397C15.9622 3.58893 15.657 3.4625 15.3387 3.4625ZM10.0013 4.865C9.32009 4.85437 8.64362 4.97936 8.01122 5.23268C7.37883 5.486 6.80314 5.86259 6.31769 6.34053C5.83223 6.81847 5.44671 7.38821 5.18355 8.01657C4.9204 8.64494 4.78488 9.31938 4.78488 10.0006C4.78488 10.6819 4.9204 11.3563 5.18355 11.9847C5.44671 12.613 5.83223 13.1828 6.31769 13.6607C6.80314 14.1387 7.37883 14.5153 8.01122 14.7686C8.64362 15.0219 9.32009 15.1469 10.0013 15.1363C11.3494 15.1152 12.6353 14.5649 13.5812 13.6041C14.5272 12.6432 15.0574 11.349 15.0574 10.0006C15.0574 8.65228 14.5272 7.35802 13.5812 6.39719C12.6353 5.43636 11.3494 4.88603 10.0013 4.865ZM10.0013 6.66625C10.439 6.66625 10.8726 6.75248 11.277 6.92002C11.6815 7.08755 12.049 7.33312 12.3586 7.64268C12.6681 7.95225 12.9137 8.31976 13.0812 8.72423C13.2488 9.1287 13.335 9.56221 13.335 10C13.335 10.4378 13.2488 10.8713 13.0812 11.2758C12.9137 11.6802 12.6681 12.0477 12.3586 12.3573C12.049 12.6669 11.6815 12.9124 11.277 13.08C10.8726 13.2475 10.439 13.3337 10.0013 13.3337C9.11708 13.3337 8.26913 12.9825 7.64393 12.3573C7.01873 11.7321 6.6675 10.8842 6.6675 10C6.6675 9.11583 7.01873 8.26788 7.64393 7.64268C8.26913 7.01748 9.11708 6.66625 10.0013 6.66625Z" fill="#F7F7F7"/>
</svg>

<?xml version="1.0" encoding="UTF-8"?>
<svg id="_圖層_1" data-name="圖層_1" xmlns="http://www.w3.org/2000/svg" version="1.1" viewBox="0 0 20 20">
  <!-- Generator: Adobe Illustrator 30.6.0, SVG Export Plug-In . SVG Version: 2.1.4 Build 109)  -->
  <defs>
    <style>
      .st0 {
        fill: #f7f7f7;
      }
    </style>
  </defs>
  <path class="st0" d="M10,0c-2.71,0-3.05.01-4.12.06-1.07.05-1.79.22-2.43.46-.67.25-1.27.64-1.77,1.15-.51.5-.9,1.1-1.15,1.77-.25.63-.42,1.36-.46,2.42-.05,1.07-.06,1.41-.06,4.13s.01,3.06.06,4.12c.05,1.06.22,1.79.46,2.43.26.66.6,1.22,1.15,1.77.56.56,1.11.9,1.77,1.15.64.25,1.36.42,2.43.47,1.07.05,1.41.06,4.12.06s3.06-.01,4.12-.06c1.06-.05,1.79-.22,2.43-.47.67-.25,1.27-.64,1.77-1.15.56-.56.9-1.11,1.15-1.77.25-.64.41-1.36.47-2.43.05-1.07.06-1.41.06-4.12s-.01-3.06-.06-4.12c-.05-1.06-.22-1.79-.47-2.43-.25-.67-.64-1.27-1.15-1.77-.5-.51-1.1-.9-1.77-1.15-.64-.25-1.36-.42-2.43-.46-1.07-.05-1.41-.06-4.12-.06h0ZM9.1,1.8h.9c2.67,0,2.99,0,4.04.06.98.04,1.51.21,1.86.34.47.18.8.4,1.15.75.35.35.57.68.75,1.15.14.35.3.88.34,1.86.05,1.05.06,1.37.06,4.04s-.01,2.99-.06,4.04c-.04.97-.21,1.5-.34,1.86-.16.43-.42.83-.75,1.15-.35.35-.68.57-1.15.75-.35.14-.88.3-1.86.34-1.05.05-1.37.06-4.04.06s-2.99-.01-4.04-.06c-.97-.05-1.5-.21-1.86-.34-.43-.16-.83-.42-1.15-.75-.33-.32-.59-.72-.75-1.15-.14-.35-.3-.88-.34-1.86-.05-1.05-.06-1.37-.06-4.04s0-2.98.06-4.04c.04-.98.21-1.51.34-1.86.18-.47.4-.8.75-1.15.35-.35.68-.57,1.15-.75.35-.14.88-.3,1.86-.35.92-.04,1.28-.06,3.14-.06h0ZM15.34,3.46c-.16,0-.31.03-.46.09-.15.06-.28.15-.39.26-.11.11-.2.24-.26.39s-.09.3-.09.46.03.31.09.46c.06.15.15.28.26.39.11.11.24.2.39.26.15.06.3.09.46.09.32,0,.62-.13.85-.35.23-.23.35-.53.35-.85s-.13-.62-.35-.85c-.23-.23-.53-.35-.85-.35ZM10,4.86c-.68-.01-1.36.11-1.99.37-.63.25-1.21.63-1.69,1.11-.49.48-.87,1.05-1.13,1.68-.26.63-.4,1.3-.4,1.98s.14,1.36.4,1.98c.26.63.65,1.2,1.13,1.68.49.48,1.06.85,1.69,1.11.63.25,1.31.38,1.99.37,1.35-.02,2.63-.57,3.58-1.53.95-.96,1.48-2.26,1.48-3.6s-.53-2.64-1.48-3.6c-.95-.96-2.23-1.51-3.58-1.53ZM10,6.67c.44,0,.87.09,1.28.25.4.17.77.41,1.08.72.31.31.56.68.72,1.08.17.4.25.84.25,1.28s-.09.87-.25,1.28c-.17.4-.41.77-.72,1.08-.31.31-.68.56-1.08.72-.4.17-.84.25-1.28.25-.88,0-1.73-.35-2.36-.98s-.98-1.47-.98-2.36.35-1.73.98-2.36,1.47-.98,2.36-.98Z"/>
</svg>
